X: 42026
T: Walter Sammon's Grandmother
R: reel
M: 4/4
K: Gmajor
Bdde d2ge|d2BG BAAc|Bdde d2ge|dBAc BGGA|
Bdde d2ge|dGBG BAAd|Bdde degG|dBAd BGGA||
Bdgd edgd|Bdgd eAAc|Bdgd edge|~dBAc BGGA|
Bdgd edgd|Bdga baac'|b/a/gf/e/d efge|dBAc BGG2||

